!!!COM: Bach, Johann Sebastian
!!!CDT: 1685/02/21/-1750/07/28/
!!!OTL@@DE: Lobt Gott, ihr Christen allzugleich
!!!SCT: BWV 151/5
!!!PC#: 54
!!!AGN: chorale
**harm	**kern	**kern	**kern	**kern
*	*ICvox	*ICvox	*ICvox	*ICvox
*	*Ibass	*Itenor	*Ialto	*Isoprn
*	*I"Bass	*I"Tenor	*I"Alto	*I"Soprano
*	*	*oclefC4	*oclefC3	*oclefC1
*	*clefF4	*clefGv2	*clefG2	*clefG2
*k[f#]	*k[f#]	*k[f#]	*k[f#]	*k[f#]
*G:	*G:	*G:	*G:	*G:
*M4/4	*M4/4	*M4/4	*M4/4	*M4/4
*met(c)	*met(c)	*met(c)	*met(c)	*met(c)
*MM100	*MM100	*MM100	*MM100	*MM100
I	4G	4B	4d	4g
=1	=1	=1	=1	=1
V6	4F#	4A	4d	4dd
V7	4D	4c	4f#	4dd
I	4G	4B	4g	4dd
I6	4B	4d	4g	4dd
=2	=2	=2	=2	=2
IV	4C	4c	4g	4ee
V7	4D	4A	4f#	4cc
I;	4G;	4d;	4g;	4b;
V6	4F#	4d	4a	4a
=3	=3	=3	=3	=3
vi	8EL	8GL	8gL	8bL
D:viio6	8EJ	8GJ	8gJ	8cc#J
I	4D	4A	4f#	4dd
ii6	4G	4B	4e	4ee
V7	4A	4c#	4g	4ee
=4	=4	=4	=4	=4
I;	2D;	2A;	2f#;	2dd;
.	4r	4ry	4ry	4r
G:V65	4F#	4cnX	4a	4dd
=5	=5	=5	=5	=5
I	4G	4B	4g	4dd
V43	4A	4c	4f#	4dd
I6	4B	4d	4g	4dd
vi	4E	4e	4g	4b
=6	=6	=6	=6	=6
I6	4BB	4d	4g	4dd
ii6	4C	4e	4a	4cc
V;	4D;	4A;	4f#;	4a;
iii	4BB	4B	4f#	4dd
=7	=7	=7	=7	=7
IV65	8EL	8BL	8gL	8ccL
viio	8F#J	8AJ	4aJ	8ccJ
I	4G	4B	4g	4b
V	4D	4d	4f#	4a
e:viio7	4D#	4c	4f#	4a
=8	=8	=8	=8	=8
i	4E	4B	4g	4g
i6	4G	4e	4g	4b
v;	4B;	4d;	4f#;	4dd;
G:I	4G	4B	4g	4dd
=9	=9	=9	=9	=9
IV6	4E	4c	4g	4cc
ii65	4C	4e	4g	4a
V(64)	4D	4d	4g	4b
V7	4D	4c	4f#	4a
=10	=10	=10	=10	=10
I;	2.GG;	2.B;	2.d;	2.g;
==	==	==	==	==
*-	*-	*-	*-	*-
!!!YOR1: 371 vierstimmige Choralges&auml;nge von Johann Sebastian Bach, 
!!!YOR2: 4th ed. by Alfred D&ouml;rffel (Leipzig: Breitkopf und H&auml;rtel, 
!!!YOR2: c.1875). 178 pp. Plate "V.A.10".  reprint: J.S. Bach, 371 Four-Part 
!!!YOR4: Chorales (New York: Associated Music Publishers, Inc., c.1940).
!!!SMS: B&H, 4th ed, Alfred D&ouml;rffel, c.1875, plate V.A.10
!!!EED:  Craig Stuart Sapp
!!!EEV:  2009/05/22
